X: 5
T: Arthur Darley's
R: jig
M: 6/8
L: 1/8
K: Dmaj
|: dcB |[M: 9/8] A^GA AGF EG/F/E | [M:6/8] D2 A d2 e | faf edc | d2 A d2 e |
f2 f edc | dAA BAG | FED EDc | dAB cde |
Ddd [DE]ee | [DF]ff [DG]gg | fed edc | d2 d :|
K: Dmin
|: dcB |Aff fef | A2 f fef | Aff Agg | Aaa Abb |
A2 f fef | Aff f2 g | fed ed^c | d3 :|
K: DMaj
|: d2 e |fa/g/f edc | dA/A/A BAG | F2 D EDc | dAB cde |
Ddd [DE]ee | [DF]ff [DG]gg | fed edc | d2 d :|


Tune 417	Setting 27678

